X: 35341
T: Rosewood
R: jig
M: 6/8
K: Gmajor
|:d|gfe dd/e/f|gdc BAG|gfg Bcd|eA^G A2 d|
gg/f/e def|g>dc BAG|cde Adc|BGG G2:|
|:d/c/|BB/c/d GBd|ecB c2 e|^cde Ac/d/e|fd^c d2 f|
gfe dcB|edc BAG|cde Adc|BGG G2:|

